static/dist/images/icons/text.svg

<?xml version="1.0" encoding="utf-8"?>
<!-- Generator: Adobe Illustrator 18.1.0, SVG Export Plug-In . SVG Version: 6.00 Build 0)  -->
<!DOCTYPE svg PUBLIC "-//W3C//DTD SVG 1.1//EN" "http://www.w3.org/Graphics/SVG/1.1/DTD/svg11.dtd">
<svg version="1.1" id="Text" xmlns="http://www.w3.org/2000/svg" xmlns:xlink="http://www.w3.org/1999/xlink" x="0px" y="0px"
	 viewBox="0 0 20 20" enable-background="new 0 0 20 20" xml:space="preserve">
<path fill-rule="evenodd" clip-rule="evenodd" d="M15.5,11h-11C4.225,11,4,11.225,4,11.5v1C4,12.776,4.225,13,4.5,13h11
	c0.276,0,0.5-0.224,0.5-0.5v-1C16,11.225,15.776,11,15.5,11z M15.5,7h-11C4.225,7,4,7.225,4,7.5v1C4,8.776,4.225,9,4.5,9h11
	C15.776,9,16,8.776,16,8.5v-1C16,7.225,15.776,7,15.5,7z M10.5,15h-6C4.225,15,4,15.225,4,15.5v1C4,16.776,4.225,17,4.5,17h6
	c0.276,0,0.5-0.224,0.5-0.5v-1C11,15.225,10.776,15,10.5,15z M15.5,3h-11C4.225,3,4,3.225,4,3.5v1C4,4.776,4.225,5,4.5,5h11
	C15.776,5,16,4.776,16,4.5v-1C16,3.225,15.776,3,15.5,3z"/>
</svg>

<svg xmlns="http://www.w3.org/2000/svg" viewBox="0 0 20 20"><path fill-rule="evenodd" clip-rule="evenodd" d="M15.5 11h-11c-.275 0-.5.225-.5.5v1a.5.5 0 0 0 .5.5h11a.5.5 0 0 0 .5-.5v-1a.5.5 0 0 0-.5-.5zm0-4h-11c-.275 0-.5.225-.5.5v1a.5.5 0 0 0 .5.5h11a.5.5 0 0 0 .5-.5v-1a.5.5 0 0 0-.5-.5zm-5 8h-6c-.275 0-.5.225-.5.5v1a.5.5 0 0 0 .5.5h6a.5.5 0 0 0 .5-.5v-1a.5.5 0 0 0-.5-.5zm5-12h-11c-.275 0-.5.225-.5.5v1a.5.5 0 0 0 .5.5h11a.5.5 0 0 0 .5-.5v-1a.5.5 0 0 0-.5-.5z"/></svg>
